icons/globe.svg

<svg width="24" height="24" viewBox="0 0 24 24" fill="none" xmlns="http://www.w3.org/2000/svg">
<path d="M12 22C13.3132 22 14.6136 21.7413 15.8268 21.2388C17.0401 20.7362 18.1425 19.9997 19.0711 19.0711C19.9997 18.1425 20.7362 17.0401 21.2388 15.8268C21.3063 15.6638 21.3694 15.4993 21.4281 15.3333M12 22C10.6868 22 9.38642 21.7413 8.17317 21.2388C6.95991 20.7362 5.85752 19.9997 4.92893 19.0711C4.00035 18.1425 3.26375 17.0401 2.7612 15.8268C2.69369 15.6638 2.63058 15.4993 2.57191 15.3333M12 22C14.3071 22 15.6207 18.7556 16.1302 15.3333M12 22C9.69293 22 8.37935 18.7556 7.86975 15.3333M21.4281 15.3333C21.8062 14.264 22 13.1368 22 12C22 10.8632 21.8062 9.73603 21.4281 8.66667M21.4281 15.3333H16.1302M21.4281 15.3333H21.4444M21.4281 8.66667C21.3694 8.50071 21.3063 8.33615 21.2388 8.17317C20.7362 6.95991 19.9997 5.85752 19.0711 4.92893C18.1425 4.00035 17.0401 3.26375 15.8268 2.7612C14.6136 2.25866 13.3132 2 12 2M21.4281 8.66667H16.1302M21.4281 8.66667H21.4444M12 2C10.6868 2 9.38642 2.25866 8.17317 2.7612C6.95991 3.26375 5.85752 4.00035 4.92893 4.92893C4.00035 5.85752 3.26375 6.95991 2.7612 8.17317C2.69369 8.33615 2.63058 8.50071 2.57191 8.66667M12 2C14.3071 2 15.6207 5.2444 16.1302 8.66667M12 2C9.69293 2 8.37935 5.2444 7.86975 8.66667M2.57191 15.3333C2.19383 14.264 2 13.1368 2 12C2 10.8632 2.19383 9.73603 2.57191 8.66667M2.57191 15.3333H2.55556M2.57191 15.3333H7.86975M2.57191 8.66667H2.55556M2.57191 8.66667H7.86975M16.1302 15.3333C16.2983 14.2049 16.3789 13.0572 16.3789 12C16.3789 10.9428 16.2983 9.79508 16.1302 8.66667M16.1302 15.3333H7.86975M16.1302 8.66667H7.86975M7.86975 15.3333C7.70173 14.2049 7.62111 13.0572 7.62111 12C7.62111 10.9428 7.70173 9.79508 7.86975 8.66667" stroke="black" stroke-width="2" stroke-linecap="round" stroke-linejoin="round"/>
</svg>

<svg xmlns="http://www.w3.org/2000/svg" width="24" height="24" viewBox="0 0 24 24" fill="none" stroke="currentColor" stroke-width="2" stroke-linecap="round" stroke-linejoin="round">
<path d="M12 22a10 10 0 0 0 9.428-6.667M12 22a10 10 0 0 1-9.428-6.667M12 22c2.307 0 3.62-3.244 4.13-6.667M12 22c-2.307 0-3.62-3.244-4.13-6.667m13.558 0a10 10 0 0 0 0-6.666m0 6.666H16.13m5.298 0h.016m-.016-6.666q-.088-.248-.19-.494A10 10 0 0 0 12 2m9.428 6.667H16.13m5.298 0h.016M12 2a10 10 0 0 0-9.428 6.667M12 2c2.307 0 3.62 3.244 4.13 6.667M12 2C9.693 2 8.38 5.244 7.87 8.667m-5.298 6.666a10 10 0 0 1 0-6.666m0 6.666h-.016m.016 0H7.87M2.572 8.667h-.016m.016 0H7.87m8.26 6.666c.168-1.128.249-2.276.249-3.333s-.08-2.205-.249-3.333m0 6.666H7.87m8.26-6.666H7.87m0 6.666A23 23 0 0 1 7.62 12c0-1.057.08-2.205.249-3.333"/>
</svg>
